modules/hawcons-filled/icons/file-doc.svg

<?xml version="1.0" encoding="UTF-8" standalone="no"?>
<svg width="32px" height="32px" viewBox="0 0 32 32" version="1.1" xmlns="http://www.w3.org/2000/svg" xmlns:xlink="http://www.w3.org/1999/xlink" xmlns:sketch="http://www.bohemiancoding.com/sketch/ns">
    <!-- Generator: Sketch 3.0.3 (7891) - http://www.bohemiancoding.com/sketch -->
    <title>icon 29 file doc</title>
    <desc>Created with Sketch.</desc>
    <defs></defs>
    <g id="Page-1" stroke="none" stroke-width="1" fill="none" fill-rule="evenodd" sketch:type="MSPage">
        <g id="icon-29-file-doc" sketch:type="MSArtboardGroup" fill="#929292">
            <path d="M8.00684834,10 C6.34621185,10 5,11.3422643 5,12.9987856 L5,20.0012144 C5,21.6573979 6.33599155,23 8.00684834,23 L24.9931517,23 C26.6537881,23 28,21.6577357 28,20.0012144 L28,12.9987856 C28,11.3426021 26.6640085,10 24.9931517,10 L8.00684834,10 L8.00684834,10 Z M8,13 L8,20 L10.9951185,20 C12.102384,20 13,19.1134452 13,17.9940809 L13,15.0059191 C13,13.8980806 12.1061002,13 10.9951185,13 L8,13 L8,13 Z M9,14 L9,19 L11.0010434,19 C11.5527519,19 12,18.5562834 12,18.0001925 L12,14.9998075 C12,14.4476291 11.5573397,14 11.0010434,14 L9,14 L9,14 Z M16.0048815,13 C14.897616,13 14,13.8865548 14,15.0059191 L14,17.9940809 C14,19.1019194 14.8938998,20 16.0048815,20 L16.9951185,20 C18.102384,20 19,19.1134452 19,17.9940809 L19,15.0059191 C19,13.8980806 18.1061002,13 16.9951185,13 L16.0048815,13 L16.0048815,13 Z M15.9989566,14 C15.4472481,14 15,14.4437166 15,14.9998075 L15,18.0001925 C15,18.5523709 15.4426603,19 15.9989566,19 L17.0010434,19 C17.5527519,19 18,18.5562834 18,18.0001925 L18,14.9998075 C18,14.4476291 17.5573397,14 17.0010434,14 L15.9989566,14 L15.9989566,14 Z M24.9999916,18 C24.9968339,19.1165689 24.1004316,20 22.9951185,20 L22.0048815,20 C20.8938998,20 20,19.1019194 20,17.9940809 L20,15.0059191 C20,13.8865548 20.897616,13 22.0048815,13 L22.9951185,13 C24.1041209,13 24.9968142,13.8948834 24.9999915,15 L24,15 C24,14.4476291 23.5573397,14 23.0010434,14 L21.9989566,14 C21.4472481,14 21,14.4437166 21,14.9998075 L21,18.0001925 C21,18.5523709 21.4426603,19 21.9989566,19 L23.0010434,19 C23.5527519,19 24,18.5562834 24,18.0001925 L24.9999923,18 L24.9999916,18 L24.9999916,18 Z" id="file-doc" sketch:type="MSShapeGroup"></path>
        </g>
    </g>
</svg>

<svg width="32" height="32" viewBox="0 0 32 32" xmlns="http://www.w3.org/2000/svg"><path d="M8.007 10A3.003 3.003 0 0 0 5 12.999V20A2.996 2.996 0 0 0 8.007 23h16.986A3.003 3.003 0 0 0 28 20.001V13A2.996 2.996 0 0 0 24.993 10H8.007zM8 13v7h2.995A1.998 1.998 0 0 0 13 17.994v-2.988A2.003 2.003 0 0 0 10.995 13H8zm1 1v5h2.001A.997.997 0 0 0 12 18v-3c0-.552-.443-1-.999-1H9zm7.005-1A1.998 1.998 0 0 0 14 15.006v2.988c0 1.108.894 2.006 2.005 2.006h.99A1.998 1.998 0 0 0 19 17.994v-2.988A2.003 2.003 0 0 0 16.995 13h-.99zm-.006 1A.997.997 0 0 0 15 15v3c0 .552.443 1 .999 1h1.002A.997.997 0 0 0 18 18v-3c0-.552-.443-1-.999-1h-1.002zM25 18c-.003 1.117-.9 2-2.005 2h-.99A2.003 2.003 0 0 1 20 17.994v-2.988c0-1.12.898-2.006 2.005-2.006h.99c1.11 0 2.002.895 2.005 2h-1c0-.552-.443-1-.999-1h-1.002A.997.997 0 0 0 21 15v3c0 .552.443 1 .999 1h1.002A.997.997 0 0 0 24 18h1z" fill="#929292" fill-rule="evenodd"/></svg>
